X:113
T:Harvest Home, The
R:hornpipe
S:https://thesession.org/tunes/49
M:4/4
L:1/8
Z:Jeremy
K:Dmajor
|:AF|DAFA DAFA|defe dcBA|eAfA gAfA|(3efe (3dcB AGFE|
DAFA DAFA|defe dcBA|eAfA gfec|d2 f2 d2:|
|:cd|eAAA fAAA|gAfA eAAA|eAfA gAfA|(3efe (3dcB (3ABA (3GFE|
DAFA DAFA|defe dcBA|eAfA gfec|d2 f2 d2:|

